elements/rpg-character/lib/faceItem/4.svg

<svg xmlns="http://www.w3.org/2000/svg" fill="none" width="113" height="142" viewBox="0 0 113 142"><path d="M78 72H63V57h15v15Z" fill="#645841"/><path d="M63 62h-5v-2h-5v-2h-6v-1m31 12h5" stroke="#645841"/></svg>

<svg width="113" height="142" viewBox="0 0 113 142" fill="none" xmlns="http://www.w3.org/2000/svg">
<path d="M78 72H63V57H78V72Z" fill="#645841"/>
<path d="M63 62H58V60H53V58H47V57M78 69H83" stroke="#645841"/>
</svg>
